X:1
T:Angelorum Gloriæ
T:Angelorum Gloriæ
T:Tropus - Conductus (14. årh.)
%%score [ 1 2 ]
L:1/8
M:2/4
K:C
V:1 treble nm="Soprano"
V:2 treble nm="Alto"
V:1
 A2 F2 | A2 c2 | c2 B2 | A2 z2 | A2 F2 | F2 A2 | c2 B2 | A2 z2 | D2 F2 | G2 A2 | F2 E2 | D2 z2 | %12
w: An- ge-|lo- rum|Glo- ri-|æ|in- car-|na- tur|ho- di-|e|pa- nis|a- ra|gra- ci-|e|
 D2 F2 | E2 C2 | D2 (DE) | F2 F2 | (GA) F2 | D2 C2 | F2 (FE) | D2 z2 || A2 F2 | A2 c2 | c2 B2 | %23
w: cu- i|si- ne|ter- mi- *|no be-|ne- * di-|ca- mus|Do- mi- *|no.|Pa- cem|bo- nis|om- ni|
 A2 z2 | A2 F2 | F2 A2 | c2 B2 | A2 z2 | D2 F2 | G2 A2 | c2 c2 | d2 z2 | A2 F2 | A2 c2 | c2 B2 | %35
w: bus|nun- ci-|a- vit|An- ge-|lus|re- ful-|sit pa-|sto- ri-|bus.|Ve- lut|so- lis|cla- ri-|
 A2 D2 | F2 A2 | c2 d2 | c2 (Bc) | d2 z2 || A2 F2 | A2 c2 | (AB) A2 | (AG) F2 | F2 E2 | F2 A2 | %46
w: tas red-|da- mus|om- nes|gra- ci- *|as.|Al- le-|lu- ia,|al- * le-|lu- * ia,|al- le-|lu- ia,|
 c2 c2 | (c/B/c) d2 |] %48
w: al- le-|lu- * * ia.|
V:2
 D2 F2 | D2 C2 | F2 G2 | A2 z2 | A2 c2 | A2 A2 | F2 G2 | A2 z2 | A2 A2 | G2 A2 | c2 (Bc) | d2 z2 | %12
w: An- ge-|lo- rum|Glo- ri-|æ|in- car-|na- tur|ho- di-|e|pa- nis|a- ra|gra- ci- *|e|
 A2 F2 | A2 c2 | A2 (AG) | F2 F2 | (ED) F2 | A2 c2 | c2 (Bc) | d2 z2 || D2 F2 | D2 C2 | F2 G2 | %23
w: cu- i|si- ne|ter- mi- *|no be-|ne- * di-|ca- mus|Do- mi- *|no.|Pa- cem|bo- nis|om- ni|
 A2 z2 | A2 c2 | c2 A2 | F2 G2 | A2 z2 | A2 A2 | G2 A2 | F2 E2 | D2 z2 | D2 F2 | D2 C2 | F2 G2 | %35
w: bus|nun- ci-|a- vit|An- ge-|lus|re- ful-|sit pa-|sto- ri-|bus.|Ve- lut|so- lis|cla- ri-|
 A2 A2 | F2 D2 | F2 G2 | F2 (FE) | D2 z2 || D2 F2 | D2 C2 | (DE) D2 | (DE) F2 | F2 (GA) | F2 D2 | %46
w: tas red-|da- mus|om- nes|gra- ci- *|as.|Al- le-|lu- ia,|al- * le-|lu- * ia,|al- le- *|lu- ia,|
 C2 F2 | (E/D/E) D2 |] %48
w: al- le-|lu- * * ia.|

